X: 205
T: Through Fiona's Eyes (waltz)
N: 202044
C: BB
L: 1/8
M: 3/4
R: WALTZ
Q: 1/4=140
K: A
AB | "A" c2-cB Ac | "D" d2 f4 |"A" ef ed cA | "E" B4 AB |"A"c2 af ec |"Bm" d2 B3 f | 
"E7"ge dB GB | "A" A4 :|dc | "E7" B2 G3 E | "A" A2 c3 e | "D" d2 a2 f2 | "A" e4 A2|
[1 "Bm" d2 BA B2 | "F#m" c2 AF A2 |"Bm" Bd BA GF | "E" E4 :|
[2 "Bm" f2 d3 B | "F#m7" AF AB c2 | "E7" dB GE FG | "A" A6 ||
%%%%%%%%%%%%%%%%%%%%%%
